src/assets/img/icons/control/pause.svg

<svg clip-rule="evenodd" fill-rule="evenodd" stroke-linejoin="round" stroke-miterlimit="2" viewBox="0 0 62 74" xmlns="http://www.w3.org/2000/svg"><g transform="translate(-19 -13)"><path d="m43 13h-24v74h24zm-4 70h-16v-66h16zm42-70h-24v74h24zm-4 70h-16v-66h16z" fill-rule="nonzero"/><g fill="#fff"><path d="m6.491 25.48h9.477v26.316h-9.477z" transform="matrix(1.68829 0 0 2.50797 12.0406 -46.9036)"/><path d="m6.491 25.48h9.477v26.316h-9.477z" transform="matrix(1.68829 0 0 2.50797 50.0406 -46.9036)"/></g></g></svg>

<?xml version="1.0" encoding="UTF-8" standalone="no"?>
<!DOCTYPE svg PUBLIC "-//W3C//DTD SVG 1.1//EN" "http://www.w3.org/Graphics/SVG/1.1/DTD/svg11.dtd">
<svg width="100%" height="100%" viewBox="0 0 24 24" version="1.1" xmlns="http://www.w3.org/2000/svg" xmlns:xlink="http://www.w3.org/1999/xlink" xml:space="preserve" xmlns:serif="http://www.serif.com/" style="fill-rule:evenodd;clip-rule:evenodd;stroke-linejoin:round;stroke-miterlimit:2;">
    <g>
        <g transform="matrix(0.193548,0,0,0.193548,2.32258,2.32256)">
            <path d="M43,13L19,13L19,87L43,87L43,13ZM39,83L23,83L23,17L39,17L39,83ZM81,13L57,13L57,87L81,87L81,13ZM77,83L61,83L61,17L77,17L77,83Z" style="fill-rule:nonzero;"/>
        </g>
    </g>
</svg>
